X: 34344
T: Return To Kashmagiro
R: reel
M: 4/4
K: Aminor
eaed cBAc|BAGE GAcd|eaed cBAc|BAGB A4:|
EA(3AAA cBAc|BG(3GGG DG(3GGG|EA(3AAA cBAc|BAHB A4|
EA(3AAA cBAc|BG(3GGG DG(3GGG|eaed cBAc|BAGB A4||

